source/images/icons/icon-editorial/mire.svg

<?xml version="1.0" encoding="UTF-8"?>
<svg width="80px" height="80px" viewBox="0 0 80 80" version="1.1" xmlns="http://www.w3.org/2000/svg" xmlns:xlink="http://www.w3.org/1999/xlink">
    <!-- Generator: Sketch 55.2 (78181) - https://sketchapp.com -->
    <title>Illustrative Icons/Mire</title>
    <desc>Created with Sketch.</desc>
    <g id="Illustrative-Icons/Mire" stroke="none" stroke-width="1" fill="none" fill-rule="evenodd">
        <path d="M67,38.6666667 L61.9366667,38.6666667 C61.1009656,28.0212944 52.6453723,19.5657012 42,18.73 L42,13.6666667 C42,12.7461921 41.253808,12 40.3333334,12 C39.4128588,12 38.6666667,12.7461921 38.6666667,13.6666667 L38.6666667,18.73 C28.0212944,19.5657012 19.5657012,28.0212944 18.73,38.6666667 L13.6666667,38.6666667 C12.7461921,38.6666667 12,39.4128588 12,40.3333334 C12,41.253808 12.7461921,42 13.6666667,42 L18.73,42 C19.5657012,52.6453723 28.0212944,61.1009656 38.6666667,61.9366667 L38.6666667,67 C38.6666667,67.9204747 39.4128588,68.6666667 40.3333334,68.6666667 C41.253808,68.6666667 42,67.9204747 42,67 L42,61.9366667 C52.6453723,61.1009656 61.1009656,52.6453723 61.9366667,42 L67,42 C67.9204747,42 68.6666667,41.253808 68.6666667,40.3333334 C68.6666667,39.4128588 67.9204747,38.6666667 67,38.6666667 Z M40.3333334,58.6666667 C30.2081129,58.6666667 22,50.4585538 22,40.3333334 C22,30.2081129 30.2081129,22 40.3333334,22 C50.4585538,22 58.6666667,30.2081129 58.6666667,40.3333334 C58.655644,50.4539845 50.4539845,58.655644 40.3333334,58.6666667 L40.3333334,58.6666667 Z M40.3333334,42 C41.253808,42 42,41.253808 42,40.3333334 C42,39.4128588 41.253808,38.6666667 40.3333334,38.6666667 C39.4128588,38.6666667 38.6666667,39.4128588 38.6666667,40.3333334 C38.6666667,41.253808 39.4128588,42 40.3333334,42 Z" id="Shape-color" fill="#ADB5BD"></path>
    </g>
</svg>

<svg width="80" height="80">
    <title>
        Illustrative Icons/Mire
    </title>
    <path d="M67 38.667h-5.063C61.1 28.02 52.645 19.566 42 18.73v-5.063a1.667 1.667 0 1 0-3.333 0v5.063c-10.646.836-19.101 9.291-19.937 19.937h-5.063a1.667 1.667 0 0 0 0 3.333h5.063c.836 10.645 9.291 19.101 19.937 19.937V67A1.667 1.667 0 1 0 42 67v-5.063C52.645 61.1 61.101 52.645 61.937 42H67a1.667 1.667 0 1 0 0-3.333zm-26.667 20C30.208 58.667 22 50.459 22 40.333 22 30.208 30.208 22 40.333 22c10.126 0 18.334 8.208 18.334 18.333-.011 10.121-8.213 18.323-18.334 18.334zm0-16.667a1.667 1.667 0 1 0 0-3.333 1.667 1.667 0 0 0 0 3.333z" fill="#ADB5BD" fill-rule="evenodd"/>
</svg>
